packages/core/src/svgs/tokens/branded/MOVE.svg

<svg width="24" height="24" viewBox="0 0 24 24" fill="none" xmlns="http://www.w3.org/2000/svg">
<path d="M2 12.0001H5.87097V19.7419H2V12.0001ZM5.87097 12.0001H10.3871V19.7419H14.258V8.12909H5.87097V12.0001ZM14.258 4.25812V8.12909H18.1291V19.7419H22V4.25812H14.258Z" fill="#6FE9B1"/>
</svg>

<svg xmlns="http://www.w3.org/2000/svg" width="24" height="24" fill="none" viewBox="0 0 24 24">
    <path fill="#6FE9B1" d="M2 12h3.871v7.742H2zm3.871 0h4.516v7.742h3.871V8.129H5.871zm8.387-7.742V8.13h3.871v11.613H22V4.258z"/>
</svg>
